!!!COM:	Tinctoris, Johannes
!!!CDT:	~1435///-1511//
!!!OTL:	Comme femme
!!!AGN:	Fragment; Song; Chanson
!!!SCT:	Tin3002
!!!SCA:	Tin3002
!!!voices:	1
**kern
*staff1
*Ivox
*I"Superius
*I'S
*clefG2
*k[]
*M3/1
*met(O|)
=1-
4g/
4f/
4e/
4d/
4g/
4a/
4b\
4cc\
4a/
4g/
4f/
8e/L
8d/J
=2
2e/
4f/
4g/
4a/
4g/
4f/
4e/
1d
=3
2r
2.c/
4d/
4e/
4f/
4g/
4a/
4b\
4cc\
=4
4a/
4g/
4f/
4e/
*M3/1
*met(3/2)
3f/
3g/
3a/
3b-\
6a/
6g/
3f/
=5
3e/
3f/
[3g/
3%2g]
3a/
3b\
3g/
[3a/
=6
6a/]
6b\
6cc\
6dd\
[3ee\
3ee\]
3dd\
3g/
3%2dd
3g/
=7
3dd\
2cc\
6b\
3a/
2b\
6a/
6g/
6f/
3g/
3c/
=8
3%2g
3dd\
2cc\
6b\
6a/
6g/
2f#i/
6e/
3f#i/
=9
*M3/1
*met(O|)
4g/
4f/
4e/
4d/
4g/
4a/
4b\
4cc\
4dd\
4cc\
4b\
4a/
=10
4b\
4a/
4g/
4f/
4g/
4f/
4e/
4d/
4g/
4f/
4e/
4d/
=11
2e/
2g/
2c/
2g/
2.f/
4e/
=12
4d/
4c/
1d
4c/
4B-/
1A
=13
4G/
4A/
4B/
4c/
2d/
4e/
4f/
4g/
4a/
4b\
4cc\
=14
4b\
4cc\
4dd\
4ee\
2cc\
4b\
4a/
4g/
4f/
4e/
4d/
=15
2c/
2.A/
4B/
4c/
4d/
4e/
4f/
4g/
4a/
=16
4g/
4f/
4e/
8d/L
8e/J
4f/
4g/
4a/
4b\
2cc\
4b\
4a/
=17
4b\
4a/
4g/
4f/
4e/
4d/
4c/
4B/
4A/
4B/
4c/
4d/
=18
4e/
4f/
4g/
8a/L
8g/J
4f/
4e/
4d/
4c/
2.B/
4A/
=19
1c
1r
1cc
=20
2.cc\
4b\
1g
2a/
4g/
4f/
=21
1e
4e/
4d/
4e/
4f/
4g/
4f/
4e/
4d/
=22
4e/
4d/
4e/
4f/
4g/
4a/
4b\
4cc\
2dd\
4cc\
4b\
=23
4cc\
4b\
4a/
4g/
2.f/
4e/
4g/
4a/
4b\
4cc\
=24
4dd\
4cc\
4b\
4a/
4b\
4a/
4g/
4f/
4g/
4f/
4e/
4d/
=25
4c/
4d/
4e/
4f/
4g/
4f/
4e/
4d/
4e/
4d/
4c/
4B/
=26
3A/V
3c/
3d/Z
3%2eV
3B/Z
3B/V
3%2c#iZ
=27
3d/V
3%2fZ
3d/V
3e/
[3d/Z
3d/]V
3%2ddZ
=28
3.cc\V
6b\
3a/Z
1g
3f/V
3%2eZ
=29
1d
1r
2d/
[2f/
=30
4f/]
4g/
2a/
2d/
1g
2f/
=31
2g/
2.c/
4d/
4e/
4f/
4g/
4f/
4e/
4d/
=32
4g/
4a/
4b\
4cc\
4dd\
4cc\
4b\
4a/
2b\
4a/
4b\
=33
4cc\
4b\
4a/
4g/
1f
2r
[2b-i\
=34
4b-\]
4a/
2.f/
4g/
2.a/
4g/
2f/
=35
2e/
4f/
4g/
4a/
4g/
4f/
4e/
2d/
[2g/
=36
4g/]
4f/
2.a/
4g/
4f#i/
4e/
2f#i/
4e/
4f#i/
=37
*M3/1
*met(3/2)
3g/
3e/
3d/
3g/
3a/
3b\
3e/
6g/
6f/
6e/
6d/
=38
3c/
3%2e
3c/
3%2f
3e/
3%2d
=39
*M3/1
*met(O|)
4c/
4B/
4A/
4B/
4c/
4d/
4e/
4f/
2g/
[2a/
=40
4a/]
4g/
4f/
4e/
2f/
4e/
4d/
4c/
4d/
4e/
4f/
=41
4g/
4a/
4b\
4cc\
2dd\
4cc\
4b\
4a/
4g/
4f/
8e/L
8f/J
=42
4g/
4f/
4e/
4d/
4f/
4e/
4d/
4c/
1B
=43
2r
2.c/
4d/
4e/
4f/
4g/
4f/
4e/
4d/
=44
4g/
4a/
4b\
4cc\
4b\
4a/
4g/
8f/L
8g/J
4a/
4g/
4f/
4e/
=45
2d/
2.g/
4f/
1d
[2A/
=46
4A/]
4B/
4c/
4d/
4e/
4f/
4g/
4a/
4b\
4cc\
4dd\
4ee\
=47
2.cc\
4b\
4a/
4g/
2.b\
4a/
4g/
4f/
=48
2.g/
4f/
4e/
4d/
4g/
4f/
4e/
4d/
4c/
4d/
=49
4e/
4f/
4g/
4a/
4b\
4cc\
4dd\
4ee\
4dd\
4cc\
4b\
4a/
=50
4g/
4f/
4e/
4d/
1c
2r
[2c/
=51
4c/]
4d/
4e/
4f/
1g
2r
[2g/
=52
4g/]
4a/
4b\
4cc\
2b\
2r
1r
!LO:TX:i:Z=12:rj:t=end of fragment
=-
*-
!!!RDF**kern: l=long note in original notation
!!!RDF**kern: i=editorial accidental
!!!RDF**kern: V=start of tuplet marker
!!!RDF**kern: Z=end of tuplet marker
!!!ENC:	Chris Gage 02-05-2015
!!!END:	2015/02/22/
!!!EED:	Jesse Rodin
!!!EEV:	2015/03/21/
!!!ONB:	Translated from MusicXML and edited on 2015/03/21/ by Craig Sapp
!!muse2ps: C^@{COM}^i2I150v150Q16c70
